X:1
T:Courante
T:Johann Sebastian Bach (1685-1750)
T:Bach for Solo Flute (V)
T:Courante from Suite No.6 for Cello (BWV 1012) Transcription for Flute 
T:Transcription by Felix Scharpf
T:twoflutes 2020 / Felix Scharpf / Johann_Sebastian_Bach_signature.svg-2.png
T:twoflutes 2020 / Felix Scharpf / Johann_Sebastian_Bach_signature.svg-2.png
C:J. S. Bach
Z:twoflutes 2020 / Felix Scharpf / Johann_Sebastian_Bach_signature.svg-2.png
L:1/8
Q:1/4=105
M:3/4
K:G
V:1 treble nm="Flöte" snm="Fl."
V:1
"^Allegro non troppo"!mf! .g | !tenuto!g(G/A/.B).G.d.B | .g.d.b.g.d'.=f | %3
 !tenuto!e(a/b/.c').a.e'.g | !tenuto!f(d/e/.f).d.a.c | !tenuto!B(G/A/.B).G.d.=F | %6
 !tenuto!E!mp!!<(!(c/d/.e).c.a.c | (!tenuto!Bd).g(cd).f | g2 !tenuto!G.B (c/B/A/G/) | %9
!mf! !tenuto!A!<)!(F/G/.A).D.d.A | !tenuto!B(G/A/.B).G.d.B | !tenuto!g(e/f/.g).e.b.d | %12
 .^c.e !tenuto!A!mp!(f/g/ a/g/f/e/) | .f.d !tenuto!A(g/a/ b/a/g/f/) | %14
 .g.e !tenuto!A(f/g/ a/g/f/e/) | (f/e/d/^c/) (d/c/d/e/) (f/e/d/c/) | %16
 (d/^c/B/A/) (B/A/B/c/) (d/c/B/A/) | (B/A/G/F/) (G/F/G/A/) (B/A/G/F/) | %18
 (G/F/E/D/) (E/F/G/A/) (B/^c/d/B/) | (^c/B/A/G/) (A/B/c/d/) (e/f/g/e/) | %20
 !tenuto!f!mf!(d/e/.f).d.a.f | !tenuto!d'(B/^c/.d).B.f.d | !tenuto!d'(F/G/.A).F.d.A | %23
 (B/A/G/F/) (G/E/^c/B/) (d/c/B/A/) | (e/d/^c/B/) (c/A/)(f/e/) (g/f/e/d/) | %25
 (a/g/f/e/) (f/d/)(b/a/) (=c'/b/a/g/) | !tenuto!e'(^c'/d'/.e').a.c'.g | !tenuto!f(d/e/.f).A.^c.G | %28
!mp! D4 z :: .d' | !tenuto!d'(a/g/.f).a.d.f | .A.d.F.A.D.c | !tenuto!B(c/B/.A).g.f.c' | %33
 .b.g !tenuto!G(b/a/ c'/b/a/g/) | .a.f !tenuto!D!mp!!<(!(a/g/ b/a/g/f/) | %35
 .g.B !tenuto!E(F/G/) (A/G/A/B/) | (A/B/c/B/) (c/d/)(c/d/) (e/f/g/e/) | %37
 .f.c!<)!!mf! !tenuto!D(E/F/) (G/F/G/A/) | (G/A/B/A/) (B/c/)(B/c/) (d/e/f/d/) | %39
 .e.B !tenuto!C(D/E/) (F/E/F/G/) | (F/G/A/G/) (A/B/)(A/B/) (c/d/e/c/) | %41
 .A/(g/f/e/) .^d/(c'/b/a/) (e'/^d'/^c'/b/) | !tenuto!e'(=d'/=c'/ b/a/g/f/) (g/f/).a/.^d/ | %43
 e2 !tenuto!E!mp!"_cresc."(e/f/.g).e | .^c'.g !tenuto!e'(d'/c'/ d'/c'/b/a/) | %45
 !tenuto!d'(f/g/.a).d.=c'.f | .b.=f !tenuto!d'(c'/b/ c'/b/a/g/) | !tenuto!c'(e/=f/.g).c.e.B | %48
 !tenuto!A(^f/g/.a).d.c'.G | !tenuto!F(f/g/.a).d.c'.D | %50
 !tenuto!G"_dim."(b/a/) (c'/b/a/g/) (a/g/f/e/) | (f/e/d/c/) (d/c/B/A/) (B/A/G/F/) | %52
 .G"_cresc."(E/F/) (G/A/B/A/) (c/B/)(d/^c/) | !tenuto!d(F/G/) (A/B/=c/B/) (d/^c/)(e/^d/) | %54
 !tenuto!e!mf!(G/A/!>(!.B).e.^G.e | !tenuto!=f(A/B/.c).f.A.^f | %56
 !tenuto!g(B/c/ .d)(d/e/ .=f)(d'/f/) | !tenuto!c(e/d/ .e)(e/^f/ .g)(e'/g/) | %58
 (f/c/).f/.a/ !tenuto!d'(c/B/ d/c/B/A/) | .B.g .d'(B/A/ c/B/A/G/) | %60
 .A.f!>)! .d'/!p!(c/B/A/)!<(! (G/A/B/c/) | (B/c/d/e/) (d/e/d/c/) (B/c/d/e/) | %62
 (d/e/f/g/) (f/g/f/e/) (d/e/f/g/) | (f/g/a/b/) (a/b/a/g/) (f/g/a/b/) | %64
 (a/b/c'/d'/) (c'/b/a/g/) (f/e/d/c/) |!mf! !tenuto!B!<)!!>(!(G/A/.B).G.d.B | %66
 !tenuto!g!>)!!mp!(E/F/!<(!.G).E.B.G | !tenuto!g!<)!!mf!(B/c/.d).B.g.d | %68
 (e/d/c/B/) (c/A/)(f/e/) (g/f/e/d/) | (a/g/f/e/) (f/d/)(b/a/) (c'/b/a/g/) | %70
 (d'/c'/b/a/) (b/g/)(e'/d'/) (=f'/e'/d'/c'/) | !tenuto!a'(^f'/g'/.a').d'.f'.c' |1 %72
 !tenuto!b(g/a/.b).d.f.c |!mp! G4 z :|2 %74
 !tenuto!b"_poco rit."[Q:1/4=90](g/a/[Q:1/4=80].b)[Q:1/4=70].d.f.c |!mp! G4 z |] %76

